X:1
T:Title
%%score { ( 1 4 5 ) | ( 2 3 ) }
L:1/8
M:9/8
K:Eb
V:1 treble nm="Grand Piano"
V:4 treble 
V:5 treble 
V:2 bass 
V:3 bass 
V:1
 z3 z3[Q:1/4=100] GGG | G3 [GB]3 [GB][FA][EG] | [EG]3 [DF]3 [FA][FA][FA] | %3
 [FA]3 [Ac]2 [Ad] [Ac][GB][FA] | [EG]6 [GB][GB][GB] | [GB]3 [EG]2 [FA] [GB][Ge][GB] | %6
 [EBd]3 [EAc]3 [CEA][CEB][Ec] | [EB]3 [EG]2 [EB] .[DB]2 [A,DF] |[M:3/4] [G,B,E]6 | %9
[M:12/8] z3 [_Ad]6- [Ad]2 z | .[Ac]3 [EG]6 z3 | [B,GB][Ge]G B2 A z3 z2 c | z3 [EG]3- [EG]6 | %13
 z3 [Ge]6 [GB]3 | GFE [Ed]6 [Ec]3 | ABc [EB]6 [B,EG]2 [EB] |[M:9/8] z3 E6- | E3 z3 z3 |] %18
V:2
 z3 z3 [E,B,E][E,B,E][E,B,E] | [E,B,E]3 [E,E]3 [E,B,][E,B,][E,B,] | %2
 [B,,B,]3 [B,,B,]3 [B,,B,][B,,B,][B,,B,] | [D,B,]3 [B,,B,]2 [B,,B,] [D,B,][D,B,][D,B,] | %4
 [E,B,]6 [E,E][E,E][E,E] | [E,E]3 [E,B,]2 [E,B,] [E,E][E,E][E,E] | A,,3 A,,3 A,,A,,[A,,A,] | %7
 [B,,G,]3 [B,,B,]2 [B,,G,] z AB,, |[M:3/4] E,6 |[M:12/8] z6 z3 B,3 | %10
 z[K:treble] GF[K:bass] E,E,E, E,3 E,3 | E,[E,B,][E,B,E] [F,B,D]2 [F,B,D] B,3- B,2 D | %12
 [B,,A,][B,,F,][B,,B,] [E,B,]3 E,E,E, E,3 | [E,B,E][E,B,][E,B,] [E,B,]2 E, E,E,E, E,2 E, | %14
 [E,B,E][E,A,E][E,G,] [A,,B,]6 [A,,A,]3 | z3 G,6 z3 |[M:9/8] z3 .G,3 z3 | z9 |] %18
V:3
 x9 | x9 | x9 | x9 | x9 | x9 | x9 | z3 z3 .[B,,F,]3 |[M:3/4] x6 |[M:12/8] E,E,E, B,,3 B,B,B, z2 A | %10
 B,,3[K:treble][K:bass] z3 z6 | z6 [F,A,]3 F,3 | x12 | x12 | x12 | %15
 [CE][G,E][A,E] B,,B,,B,, B,,3 B,,2 [B,,G,] | %16
[M:9/8] [B,,F,][B,,F,][B,,A,] E,2- [E,-G,] [E,-A,][E,-A,][E,-A,] | [E,G,]3 z3 z3 |] %18
V:4
 x9 | x9 | x9 | x9 | x9 | x9 | x9 | x9 |[M:3/4] x6 |[M:12/8] [EGB][E_G=A][E=GB] F3 FFF z2 c | %10
 D-[D-B][DA] B,B,B, B,3 [EGB]3 | z6 D6 | [Dc][DB][DA] z3 B,B,B, B,3 | G[FA][GB] z2 B, B,B,B, E2 E | %14
 x12 | x12 |[M:9/8] [DB][DA][DF] z2 B, CCC | B,3 z3 z3 |] %18
V:5
 x9 | x9 | x9 | x9 | x9 | x9 | x9 | x9 |[M:3/4] x6 |[M:12/8] z6 z3 F3 | x12 | z6 z3 A,3 | x12 | %13
 x12 | x12 | x12 |[M:9/8] x9 | x9 |] %18

